resources/svg/bag-minus.svg

<svg xmlns="http://www.w3.org/2000/svg" viewBox="0 0 15 15" fill="currentColor"><path d="M7.5 1C6.11929 1 5 2.11929 5 3.5V4H4V3.5C4 1.567 5.567 0 7.5 0C9.433 0 11 1.567 11 3.5V4H10V3.5C10 2.11929 8.88071 1 7.5 1Z" fill="black"/><path fill-rule="evenodd" clip-rule="evenodd" d="M3.39514 5C2.63082 5 1.98872 5.5747 1.90432 6.33435L1.12654 13.3344C1.02781 14.2229 1.72335 15 2.61737 15H12.3828C13.2769 15 13.9724 14.2229 13.8737 13.3344L13.0959 6.33435C13.0115 5.5747 12.3694 5 11.6051 5H3.39514ZM5 9V10H10V9H5Z" fill="black"/></svg>

<svg xmlns="http://www.w3.org/2000/svg" viewBox="0 0 15 15" fill="currentColor"><path d="M7.5 1A2.5 2.5 0 005 3.5V4H4v-.5a3.5 3.5 0 117 0V4h-1v-.5A2.5 2.5 0 007.5 1z" fill="currentColor"/><path fill-rule="evenodd" clip-rule="evenodd" d="M3.395 5a1.5 1.5 0 00-1.49 1.334l-.778 7A1.5 1.5 0 002.617 15h9.766a1.5 1.5 0 001.49-1.666l-.777-7A1.5 1.5 0 0011.606 5h-8.21zM5 9v1h5V9H5z" fill="currentColor"/></svg>
